icons/list-ordered-16.svg

<svg xmlns="http://www.w3.org/2000/svg" width="16" height="16" viewBox="0 0 16 16"><path d="M5 3.25a.75.75 0 01.75-.75h8.5a.75.75 0 010 1.5h-8.5A.75.75 0 015 3.25zm0 5a.75.75 0 01.75-.75h8.5a.75.75 0 010 1.5h-8.5A.75.75 0 015 8.25zm0 5a.75.75 0 01.75-.75h8.5a.75.75 0 010 1.5h-8.5a.75.75 0 01-.75-.75zM.924 10.32a.5.5 0 01-.851-.525l.001-.001.001-.002.002-.004.007-.011c.097-.144.215-.273.348-.384.228-.19.588-.392 1.068-.392.468 0 .858.181 1.126.484.259.294.377.673.377 1.038 0 .987-.686 1.495-1.156 1.845l-.047.035c-.303.225-.522.4-.654.597h1.357a.5.5 0 010 1H.5a.5.5 0 01-.5-.5c0-1.005.692-1.52 1.167-1.875l.035-.025c.531-.396.8-.625.8-1.078a.57.57 0 00-.128-.376C1.806 10.068 1.695 10 1.5 10a.658.658 0 00-.429.163.835.835 0 00-.144.153zM2.003 2.5V6h.503a.5.5 0 010 1H.5a.5.5 0 010-1h.503V3.308l-.28.14a.5.5 0 01-.446-.895l1.003-.5a.5.5 0 01.723.447z"/></svg>

<svg xmlns="http://www.w3.org/2000/svg" width="16" height="16" viewBox="0 0 16 16">
  <defs/>
  <path d="M5,3.25 C5,2.836 5.336,2.5 5.75,2.5 L14.25,2.5 C14.664,2.5 15,2.836 15,3.25 C15,3.664 14.664,4 14.25,4 L5.75,4 C5.336,4 5,3.664 5,3.25 Z M5,8.25 C5,7.836 5.336,7.5 5.75,7.5 L14.25,7.5 C14.664,7.5 15,7.836 15,8.25 C15,8.664 14.664,9 14.25,9 L5.75,9 C5.336,9 5,8.664 5,8.25 Z M5,13.25 C5,12.836 5.336,12.5 5.75,12.5 L14.25,12.5 C14.664,12.5 15,12.836 15,13.25 C15,13.664 14.664,14 14.25,14 L5.75,14 C5.336,14 5,13.664 5,13.25 Z M0.924,10.32 C0.777,10.551 0.472,10.621 0.239,10.477 C0.007,10.334 -0.068,10.03 0.073,9.795 L0.074,9.794 L0.075,9.792 L0.077,9.788 L0.084,9.777 C0.181,9.633 0.299,9.504 0.432,9.393 C0.66,9.203 1.02,9.001 1.5,9.001 C1.968,9.001 2.358,9.182 2.626,9.485 C2.885,9.779 3.003,10.158 3.003,10.523 C3.003,11.51 2.317,12.018 1.847,12.368 L1.8,12.403 C1.497,12.628 1.278,12.803 1.146,13 L2.503,13 C2.779,13 3.003,13.224 3.003,13.5 C3.003,13.776 2.779,14 2.503,14 L0.5,14 C0.224,14 0,13.776 0,13.5 C0,12.495 0.692,11.98 1.167,11.625 L1.202,11.6 C1.733,11.204 2.002,10.975 2.002,10.522 C2.006,10.385 1.96,10.252 1.874,10.146 C1.806,10.068 1.695,10 1.5,10 C1.342,10.001 1.19,10.059 1.071,10.163 C1.017,10.208 0.968,10.259 0.927,10.316 Z M2.003,2.5 L2.003,6 L2.506,6 C2.782,6 3.006,6.224 3.006,6.5 C3.006,6.776 2.782,7 2.506,7 L0.5,7 C0.224,7 0,6.776 0,6.5 C0,6.224 0.224,6 0.5,6 L1.003,6 L1.003,3.308 L0.723,3.448 C0.476,3.569 0.178,3.468 0.056,3.222 C-0.067,2.976 0.032,2.677 0.277,2.553 L1.28,2.053 C1.435,1.976 1.619,1.984 1.766,2.075 C1.913,2.166 2.003,2.327 2.003,2.5 Z"/>
</svg>
